X:17
T:K\"aringtr\"atan
R:sl\"angpolska
H:efter Pelle Fors
A:\"Osterg\"otland
Z:id:hn-sp-17
M:3/4
L:1/16
K:G
G2BG D2FA A2G2|G2BG D2FA A2G2|B2GB d2ef gaba|gfgb agfe dcBA|
G2BG D2FA A2G2|G2BG D2FA A2G2|B2GB d2ef gaba|gfdf a2g2 g4:|
|:bgdg bgdg b2a2|afdf afdf a2g2|bgdg bgdg b2a2|afdf afdf a2g2|
d2ef g2B2 cBcd|ecAF A2G2 G4:|
<end>
<start>
